X:398
T:The moving bog
R:Reel
O:Scotland
S:Kerr's Fourth
B:Kerr's Fourth
Z:Transcription, chords:Mike Long
M:C|
L:1/8
K:D
A,2|\
"D"D2 FA (dA)FA|"D"d2 fd "A"(gf)ec|\
"G"d2cA B2AF|[1 "G"G2BG "A"(FG)EF:|[2 "A"GBAF "D"D2|]\
(fg)|\
"D"a2 (fd) dfdf|
"G"b2 (ge) gbgb|\
"D"a2 (fd) dfdf|"A"geaf "D"d2 (fg)|\
"D"a2 (fd) dfdf|"G"b2 (ge) gbgb|\
"D"afge fdAF|"A"GBAF "D"D2|]
